X:1
T:Summ, Summ, Summ
T:Summ, Summ, Summ
T:Deutsches Kinderlied
C:Deutsches Kinderlied
%%score { 1 | 2 }
L:1/8
M:4/4
K:C
V:1 treble nm="Piano" snm="Pno."
V:2 bass 
V:1
!mf! G4 F4 | E8 | D2 E2 F2 D2 | C8!fine! | E2 F2 G2 E2 | D2 E2 F2 D2 |!p! E2 F2 G2 E2 | %7
w: Summ, summ,|summ|Bien- chen summ her-|um!|Ei, wir tun dir|nichts zu- lei- de,|flieg nur aus in|
 D2 E2 F2 D2!D.C.! |] %8
w: Wald und Hei- de!|
V:2
 C4 G,4 | C8 | B,4 G,4 | C8 | C4 G,4 | B,8 | C4 G,4 | B,8 |] %8

